resources/svg/anti-clockwise.svg

<svg xmlns="http://www.w3.org/2000/svg" viewBox="0 0 15 15" fill="currentColor"><path fill-rule="evenodd" clip-rule="evenodd" d="M8.14547 0.146423L8.85253 0.853584L7.70401 2.00192C11.1985 2.10967 14 4.97581 14 8.49487C14 12.0822 11.0888 14.991 7.5 14.991C3.91117 14.991 1 12.0822 1 8.49487V7.99487H2V8.49487C2 11.5293 4.46283 13.991 7.5 13.991C10.5372 13.991 13 11.5293 13 8.49487C13 5.53117 10.6506 3.11379 7.7113 3.00277L8.85253 4.14382L8.14547 4.85098L5.79284 2.4987L8.14547 0.146423Z" fill="black"/></svg>

<svg xmlns="http://www.w3.org/2000/svg" viewBox="0 0 15 15" fill="currentColor"><path fill-rule="evenodd" clip-rule="evenodd" d="M8.145.146l.708.708-1.149 1.148A6.499 6.499 0 0114 8.495a6.499 6.499 0 01-6.5 6.496A6.499 6.499 0 011 8.495v-.5h1v.5a5.499 5.499 0 005.5 5.496A5.5 5.5 0 0013 8.495a5.499 5.499 0 00-5.289-5.492l1.142 1.14-.708.708-2.352-2.352L8.145.146z" fill="currentColor"/></svg>
